X:1
T:Pax Dei (Dykes), 10.10.10.10
T:Pax Dei (Dykes), 10.10.10.10
T:John Bacchus Dykes, 1868
T:Public Domain Courtesy of the Cyber Hymnal™
C:John Bacchus Dykes, 1868
Z:Public Domain
Z:Courtesy of the Cyber Hymnal™
%%score ( 1 2 ) ( 3 4 )
L:1/8
Q:1/4=113
M:4/4
K:D
V:1 treble 
V:2 treble 
V:3 bass 
V:4 bass 
V:1
 [A,D]4 [DF]2 [DA]2 | [DA]3 [DG] [DF]2 D2 | F4 (E2 D2) | (D4 C4) | [A,D]4 [DF]2 [EA]2 | %5
 [Fd]2 [^Ec]2 [CA]2 [FB]2 | c4 z2 B2 | [EA]8 | A4 [^DB]2 [DF]2 | G4 (A2 E2) | %10
 [DF]2 [EA]2 [Fd]2 d2 | [Ec]8 | [Ec]4 [Dd]2 D2 x | D2 [DE]2 [DF]2 (GE) | D6 z2 C2 | [A,D]8 |] %16
V:2
 x8 | x6 D2 | (D2 C2) B,4 | A,8 | x8 | x8 | (E2 A2) ^G4 | x8 | (F2 E2) x4 | (E2 D2) C4 | x6 (ED) | %11
 x8 | x9 | x6 B,2 | (A,2 B,2 A,4) x2 | x8 |] %16
V:3
 [D,F,]4 [D,A,]2 [D,=C]2 | [D,B,]3 [D,B,] [D,A,]2 [B,,B,]2 | [F,,A,]4 (G,2 F,2) | (F,4 E,2 G,2) | %4
 [D,F,]4 [D,A,]2 [C,A,]2 | [B,,A,]2 [C,^G,]2 [F,A,]2 [D,A,]2 | (A,2 B,C) [E,D]4 | C8 | %8
 (C2 =C2) [B,,B,]2 [F,A,]2 | (B,2 _B,2) ([A,,A,]2 [E,G,]2) | [D,A,]2 [C,A,]2 [B,,A,]2 [B,,^G,]2 | %11
 [A,,A,]8 | C3 (z B,) [F,A,]2 [F,A,]2 | [G,B,]2 [G,B,]2 [F,A,]2 G,2 | (F,2 G,2 F,2) (E,G,) x2 | %15
 [D,F,]8 |] %16
V:4
 x8 | x8 | x4 G,,4 | A,,8 | x8 | x8 | E,4 x4 | (A,4 G,4) | F,4 x4 | E,4 x4 | x8 | x8 | A,2 G,2 x5 | %13
 x6 (E,G,,) | A,,6 A,,2 x2 | x8 |] %16

